X: 365
T: Merry Mary
C: anon.
O: Ireland
B: Francis O'Neill: "The Dance Music of Ireland" (1907) no. 365
R: Double jig
Z: Transcribed by Frank Nordberg - http://www.musicaviva.com
F: http://www.musicaviva.com/abc/tunes/ireland/oneill-1001/oneill-1001-036
5.abc
M: 6/8
L: 1/8
K: D
DFA ABc|dcB A2A|B2E EFG|FEF D3|DFA ABc|dcB A2A|Bcd edc|d3 "1)"d3:|
|:fdf ece|dcB A2A|B2E EFG|FEF D3|fdf ece|dcB A2A|Bcd edc|d3 "1)"d3:|
W:
W:
W: 1) Org. not dotted.
W:
W:
W: From Musica Viva - http://www.musicaviva.com
W: the Internet center for free sheet music downloads.


